!!!!SEGMENT: pl-sa--290-a-vii-50--001_lechleitner-ferdinand-simon--missa-s-luciae-kyrie.krn
!!!cenid: 17xx:430
!!!COM: Lechleitner, Ferdinand Simon
!!!COM-rismID: pe30001903
!!!CDT: ~1700-~1800
!!!CNT:
!!!OPR: Missa S. Luciae
!!!OTL: Kyrie
!!!OMV: 001
!!!PDT: 1738
!!!AGN: Sacred; Mass
!!!SMS-siglum: PL-SA
!!!SMS-shelfmark: 290/A VII 50
!!!SMS-shelfwork: 001-001 M
!!!NIFC-rismSourceID: 1001070169
!!!NIFC-islandoraID:
!!!URL-pdf-islandora:
!!!URL-scan: https://bc.bdsandomierz.pl/dlibra/publication/1785/edition/1753/content @EN{Scan in the Sandomierz Diocese Digital Library} @PL{Skany w portalu Cyfrowa Biblioteka Diecezjalna w Sandomierzu}
!!!ONB-nifc: UWAGA: części Mszy: Kyrie, Gloria, Patrem, Sanctus, Benedictus, Agnus Dei
!!!AIN: 1 alto 3 empty 1 organ 1 tenor 2 violn 1 vox
!!!key:
**kern	**fba	**kern	**kern	**kern	**text	**kern	**text	**kern	**text	**text	**kern	**text	**text	**kern	**kern
*part9	*part9	*part8	*part7	*part6	*part6	*part5	*part5	*part4	*part4	*part4	*part3	*part3	*part3	*part2	*part1
*staff9	*staff9	*staff8	*staff7	*staff6	*staff6	*staff5	*staff5	*staff4	*staff4	*staff4	*staff3	*staff3	*staff3	*staff2	*staff1
*Iorgan	*	*Ivioln	*Ivioln	*Iempty	*	*Itenor	*	*Ialto	*	*	*Ivox	*	*	*Iempty	*Iempty
*I"Organo	*	*I"Violino Secundo	*I"Violino Primo	*I"Baſso	*	*I"Tenore	*	*I"Alto	*	*	*I"Canto	*	*	*I"Clarino 2do	*I"Clarino Primo
*I'Org.	*	*I'V-no II	*I'V-no I	*I'B.	*	*I'T.	*	*I'A.	*	*	*I'C.	*	*	*I'Clarino II	*I'Clarino I
*clefF4	*	*clefG2	*clefG2	*clefF4	*	*clefC4	*	*clefC3	*	*	*clefC1	*	*	*clefG2	*clefG2
*k[]	*	*k[]	*k[]	*k[]	*	*k[]	*	*k[]	*	*	*k[]	*	*	*k[]	*k[]
*C:	*	*C:	*C:	*C:	*	*C:	*	*C:	*	*	*C:	*	*	*C:	*C:
*M4/4	*	*M4/4	*M4/4	*M4/4	*	*M4/4	*	*M4/4	*	*	*M4/4	*	*	*M4/4	*M4/4
*met(c)	*	*met(c)	*met(c)	*met(c)	*	*met(c)	*	*met(c)	*	*	*met(c)	*	*	*met(c)	*met(c)
=1	=1	=1	=1	=1	=1	=1	=1	=1	=1	=1	=1	=1	=1	=1	=1
!LO:TX:i:a:t=Tut(ti)	!	!	!	!	!	!	!	!	!	!	!	!	!	!	!
!LO:TX:rj:b:t=Kyrie	!	!LO:TX:b:t=Kyrie	!LO:TX:b:t=Kyrie	!	!	!	!	!	!	!	!	!	!	!LO:TX:b:t=Kyrie	!LO:TX:b:t=Kyrie
!LO:TX:rj:a:t=adagio	!	!LO:TX:a:t=Adagio	!LO:TX:a:t=Adagio	!LO:TX:rj:a:t=Adagio	!	!LO:TX:a:t=Adagio	!	!LO:TX:a:t=Adagio	!	!	!LO:TX:a:t=Adagio	!	!	!LO:TX:a:t=adagio	!LO:TX:a:t=adagio
4.C/	.	4.ee\	4.ccc\	4.C/	Ky-	4.c\	Ky-	4.g\	Ky-	.	4.ee\	Ky-	.	4.cc\	4.ee\
8C/	.	8ee\	8ccc\	8C/	-ri-	8c\	-ri-	8g\	-ri-	.	8ee\	-ri-	.	8cc\	8ee\
4C/	.	4ee\	4ccc\	4C/	-e	4c\	-e	4e\	-e	.	4ee\	-e	.	4cc\	4ee\
8r	.	8r	8r	8r	.	8r	.	8r	.	.	8rdd	.	.	8r	8r
8C/	.	8cc\	8ee\	8C/	e-	8e\	e-	8g\	e-	.	8cc\	e-	.	8ee\	8gg\
=2	=2	=2	=2	=2	=2	=2	=2	=2	=2	=2	=2	=2	=2	=2	=2
*	*	*	*	*	*	*2\right	*	*	*	*	*	*	*	*	*
4C/	4 2	4.dd\	4.ff\	4C/	-lei-	2d\	-lei-	4.f\	-lei-	.	4.dd\	-lei-	.	4.dd\	4.ff\
4BB/	6 5	.	.	4BB/	.	.	.	.	.	.	.	.	.	.	.
.	.	16cc\LL	8ff\	.	.	.	.	16g\LL	.	.	16cc\LL	.	.	8dd\	8ff\
.	.	16dd\JJ	.	.	.	.	.	16f\JJ	.	.	16dd\JJ	.	.	.	.
4C/	.	4ee\	4gg\	4C,</	-ſon	4c\	-ſon	4e,<\	-ſon	.	4ee,<\	-ſon	.	4cc\	4ee\
!	!	!	!	!	!	!LO:SIC:o=:v:tekst dopisany innym tuszem	!	!	!	!	!	!	!	!	!
*	*	*	*	*	*	*	*ij	*	*	*	*	*	*	*	*
4c\	3	4cc\	4ee\	4c\	e-	4e\	e-	4g\	e-	.	4cc\	e-	.	4cc\	4ee\
=3	=3	=3	=3	=3	=3	=3	=3	=3	=3	=3	=3	=3	=3	=3	=3
*	*	*2\right	*	*	*	*	*	*	*	*	*2\right	*	*	*2\right	*
4c\	4 2	2dd\	4ff#X\	4c\	-lei-	4d\	-lei	4f#X\	-lei-	.	2dd\	-lei-	.	2dd\	4ff#X\
*	*	*	*2\right	*	*	*	*	*2\right	*	*	*	*	*	*	*
4B\	6	.	2gg\	4B\	.	4B\	.	2g\	.	.	.	.	.	.	4gg\
*2\right	*	*	*	*2\right	*	*	*	*	*	*	*	*	*	*	*
2A\	7	2cc\	.	2A\	.	2c\	.	.	.	.	2cc\	.	.	4.cc\	4gg\
.	6\	.	4ff#X\	.	.	.	.	4f#X\	.	.	.	.	.	.	4ff#X\
.	.	.	.	.	.	.	.	.	.	.	.	.	.	8cc\	.
=4	=4	=4	=4	=4	=4	=4	=4	=4	=4	=4	=4	=4	=4	=4	=4
8G\	.	8b/	8gg\	8G,<\	-ſon	8d,<\	son	8g,<\	-ſon	.	8b,<\	-ſon	.	8dd\	8gg\
*	*	*	*	*	*	*	*Xij	*	*	*	*	*	*	*	*
4G\	.	4cc\	4dd\	4G\	Ky-	4B\	Ky-	4b\	Ky-	.	4dd\	Ky-	.	4g/	4dd\
8G\	.	8b/	8dd\	8G\	-ri-	8d\	-ri-	8g\	-ri-	.	8b\	-ri-	.	8g/	8dd\
4E\	6	4cc\	4ee\	4E\	-e	4e\	-e	4g\	-e	.	4cc,<\	-e	.	8cc\L	8ee\L
.	.	.	.	.	.	.	.	.	.	.	.	.	.	8cc\J	8ee\J
4C/	.	4cc\	4ee\	4C/	e-	4e\	e-	4e\	e-	.	4cc\	e-	.	4r	4r
=5	=5	=5	=5	=5	=5	=5	=5	=5	=5	=5	=5	=5	=5	=5	=5
4.F\	.	4a/	4.ff\	4F\	-lei-	4f\	-lei-	4c/	-lei-	.	4a\	-lei-	.	1r	1r
.	.	4cc\	.	8F\	-ſon	8F/	.	8a,<\	-ſon	.	8cc\	-ſon	.	.	.
*	*	*	*	*	*ij	*	*	*	*ij	*	*	*ij	*	*	*
8E\	6	.	8gg\	8E\	e-	8c,<\	-ſon	8g\	e-	.	8cc\	Ky-	.	.	.
4D\	7	4cc\	4ff\	4D/	-lei-	2d\	e-	4.f\	-lei-	.	4cc\	-ri-	.	.	.
4G\	7	4b\	4ff\	4G\	.	.	.	.	.	.	4b\	-e	.	.	.
.	.	.	.	.	.	.	.	16e\LL	-ſon	.	.	.	.	.	.
.	.	.	.	.	.	.	.	16f\JJ	.	.	.	.	.	.	.
*	*	*	*	*	*	*	*	*	*Xij	*	*	*	*	*	*
!	!	!	!	!	!	!	!	!LO:LB:g=origignal	!	!	!	!	!	!	!
=6	=6	=6	=6	=6	=6	=6	=6	=6	=6	=6	=6	=6	=6	=6	=6
4C/	.	4cc\	4ee\	4C/	.	4e\	-lei-	4g\	e-	.	4cc\	e-	.	4r	4r
*	*	*	*	*	*	*	*	*	*	*	*	*	*	*	*2\right
4F#X\	.	4a/	4dd\	4F#X\	-ſon	4c\	-ſon	4a\	.	.	4dd\	-lei-	.	2g/	2dd\
*	*	*	*	*	*Xij	*	*	*	*	*	*	*	*	*	*
.	x x 4	.	.	.	.	.	.	.	.	.	.	.	.	.	.
2G\	7 5 3	4b/	4dd\	2G\	e-	4B\	e-	2g\	lei-	.	4dd\	-ſon	.	.	.
*	*	*	*	*	*	*	*	*	*	*	*	*Xij	*	*	*
!	!	!	!	!	!	!	!	!	!	!	!LO:LB:g=original	!	!	!	!
.	x 6 4	4cc\	4ee\	.	.	4c\	-lei-	.	.	.	4ee\	e-	.	4g/	4ee\
=7	=7	=7	=7	=7	=7	=7	=7	=7	=7	=7	=7	=7	=7	=7	=7
2G\	x 6 4	4cc\	4ee\	2G\	-lei-	4e\	.	2g\	-ſon	.	4ee\	-lei-	.	4.g/	4.dd\
.	7 5 3	4b\	4dd\	.	.	4d\	-ſon	.	.	.	4dd\	.	.	.	.
.	.	.	.	.	.	.	.	.	.	.	.	.	.	8g/	8dd\
2C/	.	2cc\	2ee\	2C/	-ſon	2e\	.	2g\	.	.	2ee\	-ſon	.	2e/	2cc\
!LO:LB:g=original	!	!LO:LB:g=original	!LO:LB:g=original	!	!	!LO:LB:g=original	!	!	!	!	!LO:LB:g=original	!	!	!LO:LB:g=original	!LO:LB:g=original
=8||	=8||	=8||	=8||	=8||	=8	=8||	=8	=8||	=8	=8	=8:||:	=8	=8	=8	=8
*M2/2	*	*M2/2	*M2/2	*M2/2	*	*M2/2	*	*M2/2	*	*	*M2/2	*	*	*M2/2	*M2/2
*met(c|)	*	*met(c|)	*met(c|)	*met(c|)	*	*met(c|)	*	*met(c|)	*	*	*met(c|)	*	*	*met(c|)	*met(c|)
!LO:TX:b:t=Kyrie\nDon nobis	!	!	!	!	!	!	!	!	!	!	!	!	!	!LO:TX:b:t=Kyrie \net Dona nobis	!LO:TX:b:t=Kyrie\net Dona nobis
!LO:TX:rj:b:t=allabre	!	!	!LO:TX:a:t=allabreve	!	!	!	!	!LO:TX:a:t=allabr(eve)	!	!	!LO:TX:a:t=allabreve	!	!	!LO:TX:a:t=allabreve	!LO:TX:a:t=allabre
2.G\	.	00r	00r	2.G\	Ky-	1r	.	00r	.	.	00r	.	.	00r	00r
4G\	.	.	.	4G\	-ri-	.	.	.	.	.	.	.	.	.	.
=9	=9	=9	=9	=9	=9	=9	=9	=9	=9	=9	=9	=9	=9	=9	=9
*^	*	*	*	*	*	*	*	*	*	*	*	*	*	*	*
!	!	!	!	!	!LO:TX:a:t=allabreve	!	!LO:TX:a:t=allabreve	!	!	!	!	!	!	!	!	!
2.c/	4E\	.	.	.	4E\	-e-	2.c\	Ky-	.	.	.	.	.	.	.	.
.	4D\	.	.	.	4D\	.	.	.	.	.	.	.	.	.	.	.
.	4E\	.	.	.	4E\	.	.	.	.	.	.	.	.	.	.	.
4c/	4C/	.	.	.	4C/	.	4c\	-ri-	.	.	.	.	.	.	.	.
=10	=10	=10	=10	=10	=10	=10	=10	=10	=10	=10	=10	=10	=10	=10	=10	=10
4B/	2.G\	.	.	.	2G\	-lei-	4B\	-e-	.	.	.	.	.	.	.	.
4A/	.	.	.	.	.	.	4A\	-lei	.	.	.	.	.	.	.	.
4B/	.	.	.	.	4G\	-ſon	4B\	.	.	.	.	.	.	.	.	.
4G/	4E\	.	.	.	4E\	e-	4G/	.	.	.	.	.	.	.	.	.
=11	=11	=11	=11	=11	=11	=11	=11	=11	=11	=11	=11	=11	=11	=11	=11	=11
4A/	4F\	.	.	.	4F\	-lei-	4A/	.	.	.	.	.	.	.	.	.
4G/	4E\	.	.	.	4E\	.	4G/	.	.	.	.	.	.	.	.	.
4A/	4F\	.	.	.	4F\	.	4A/	.	.	.	.	.	.	.	.	.
4B/	4D\	.	.	.	4D\	.	4B\	.	.	.	.	.	.	.	.	.
=12	=12	=12	=12	=12	=12	=12	=12	=12	=12	=12	=12	=12	=12	=12	=12	=12
2c/	4E\	.	0r	0r	4E\	.	2c\	.	0r	.	.	0r	.	.	00r	00r
.	4C\	.	.	.	4C/	.	.	.	.	.	.	.	.	.	.	.
2B/	2G\	.	.	.	1G\	.	2B\	.	.	.	.	.	.	.	.	.
=13	=13	=13	=13	=13	=13	=13	=13	=13	=13	=13	=13	=13	=13	=13	=13	=13
1A/	2G\	.	.	.	.	.	1A\	.	.	.	.	.	.	.	.	.
.	2F#X\	.	.	.	2F#X\	.	.	.	.	.	.	.	.	.	.	.
=14	=14	=14	=14	=14	=14	=14	=14	=14	=14	=14	=14	=14	=14	=14	=14	=14
!	!	!	!LO:TX:rj:b:t=Kyrie\nDona nobis	!	!	!	!	!	!	!	!	!	!	!	!	!
!	!	!	!LO:TX:a:t=allabreve	!	!	!	!	!	!	!	!	!	!	!	!	!
2B/	2G\	.	2.g/	1r	4G,<\	son	2B,<\	son	2.g\	Ky-	Do-	1r	.	.	.	.
.	.	.	.	.	4G\	e-	.	.	.	.	.	.	.	.	.	.
2rGGyy	4B\	.	.	.	4B\	.	4d\	Ky-	.	.	.	.	.	.	.	.
.	4G\	.	4g/	.	4G\	.	4B\	-ri-	4g\	-ri-	-na	.	.	.	.	.
*v	*v	*	*	*	*	*	*	*	*	*	*	*	*	*	*	*
=15	=15	=15	=15	=15	=15	=15	=15	=15	=15	=15	=15	=15	=15	=15	=15
2.c\	.	4e/	2cc\	2.c\	-lei-	2c\	-e	4e\	-e	no-	2.cc\	Ky-	Do-	.	.
.	.	4d/	.	.	.	.	.	4d\	.	-bis	.	.	.	.	.
.	.	4e/	2cc\	.	.	2G/	e-	4e\	.	.	.	.	.	.	.
4E\	.	4c/	.	4E\	.	.	.	4c/	e-	.	4cc\	-ri-	-na	.	.
=16	=16	=16	=16	=16	=16	=16	=16	=16	=16	=16	=16	=16	=16	=16	=16
2.G\	.	2.g/	4b/	2G\	.	(2.B\	-lei-	2g\	-lei-	.	4b\	-e-	no	00r	00r
.	.	.	4a/	.	.	.	.	.	.	.	4a\	.	.	.	.
.	.	.	4b/	4G\	-ſon	.	.	4g\	-ſon	.	4b\	.	.	.	.
4C/	.	4e/	4g/	4C/	e-	4c\)	.	4e\	e-	.	4g\	.	.	.	.
!LO:LB:g=original	!	!	!	!	!	!	!	!	!	!	!	!	!	!	!
=17	=17	=17	=17	=17	=17	=17	=17	=17	=17	=17	=17	=17	=17	=17	=17
2F\	.	4f/	4a/	2F\	-lei-	2A\	-ſon	(4f\	-lei-	.	4a\	.	.	.	.
.	.	4e/	4g/	.	.	.	.	4e\	.	.	4g\	.	.	.	.
2D\	.	4f/	4a/	2D\	.	2r	.	4f\)	.	.	4a\	.	.	.	.
.	.	4d/	4b/	.	.	.	.	4d\	.	.	4b\	.	.	.	.
=18	=18	=18	=18	=18	=18	=18	=18	=18	=18	=18	=18	=18	=18	=18	=18
4C/	.	4e/	2cc\	4C/	.	2r	.	4e\	.	.	2cc\	.	.	.	.
4E\	6	4c/	.	4E\	.	.	.	4c/	.	.	.	.	.	.	.
4G\	.	[2g/	2b\	4G\	.	2d\	e-	1g\	.	.	2b\	.	.	.	.
4BB/	6	.	.	4BB/	.	.	.	.	.	.	.	.	.	.	.
!	!	!	!	!LO:LB:g=original	!	!	!	!	!	!	!	!	!	!	!
=19	=19	=19	=19	=19	=19	=19	=19	=19-	=19	=19	=19	=19	=19	=19	=19
4C/	6 5	2g/]	1a/	4C/	.	2e\	-lei-	.	.	.	1a\	-lei-	.	.	.
4AA/	.	.	.	4AA/	.	.	.	.	.	.	.	.	.	.	.
4D\	7 4	2f#X/	.	2D\	.	2d\	-ſon	2f#X\	.	.	.	.	.	.	.
4DD/	# 3	.	.	.	.	.	.	.	.	.	.	.	.	.	.
!	!	!	!	!	!	!LO:LB:g=original	!	!	!	!	!	!	!	!	!
=20	=20	=20	=20	=20	=20	=20	=20	=20	=20	=20	=20	=20	=20	=20	=20
2GG/	.	2g/	2b/	2GG,</	-ſon	2.d\	Ky-	2g,<\	-ſon	.	4b,<\	-ſon	.	00r	00r
.	.	.	.	.	.	.	.	.	.	.	2b\	Ky-	.	.	.
2G\	.	2dd\	2b/	2G\	e-	.	.	2d\	e-	.	.	.	.	.	.
.	.	.	.	.	.	4d\	-ri-	.	.	.	4b\	-ri-	.	.	.
!	!	!	!	!	!	!	!	!LO:LB:g=origignal	!	!	!	!	!	!	!
=21	=21	=21	=21	=21-	=21	=21	=21	=21	=21	=21	=21	=21	=21	=21	=21
1A\	7	1cc\	2cc\	1A\	-lei-	(4c\	-e	1c\	-ley-	.	2cc\	-e	.	.	.
.	.	.	.	.	.	4B\	.	.	.	.	.	.	.	.	.
.	6\	.	4r	.	.	4c\	.	.	.	.	4r	.	.	.	.
.	.	.	4cc\	.	.	4A\)	.	.	.	.	4cc\	e-	.	.	.
=22	=22	=22	=22	=22	=22	=22	=22	=22	=22	=22	=22	=22	=22	=22	=22
2G\	.	2dd\	2b\	2G\	-ſon	(4B\	e-	2d,<\	-ſon	.	2b\	-lei-	.	.	.
.	.	.	.	.	.	4G/	-lei-	.	.	.	.	.	.	.	.
2E\	6	2gg\	2cc\	2E\	e-	1c\	.	2g\	e-	.	2cc\	.	.	.	.
!	!	!	!	!	!	!	!	!	!	!	!LO:LB:g=origignal	!	!	!	!
=23	=23	=23	=23	=23	=23	=23-	=23	=23	=23	=23	=23	=23	=23	=23	=23
2D\	7	1ff\	2dd\	2D/	-lei-	.	.	1f#X\	-lei-	.	2dd\	-ſon	.	.	.
2G\	7	.	2dd\	2G\	.	2B\	.	.	.	.	2r	.	.	.	.
=24	=24	=24	=24	=24	=24	=24	=24	=24	=24	=24	=24	=24	=24	=24	=24
2C/	.	2gg\	2ee\	2C/	-ſon	2c\)	-ſon	2g\	-ſon	.	2.ff\	Ky-	.	0r	2.gg\
2r	.	2r	2gg\	2r	.	2r	.	2r	.	.	.	.	.	.	.
.	.	.	.	.	.	.	.	.	.	.	4gg\	-ri-	.	.	4gg\
=25	=25	=25	=25	=25	=25	=25	=25	=25	=25	=25	=25	=25	=25	=25	=25
2.c\	.	2.gg\	4ee\	2.c\	Ky-	2.c\	Ky-	2.g\	Ky-	.	4ee\	-e	.	.	4ee\
.	.	.	4dd\	.	.	.	.	.	.	.	4dd\	.	.	.	4dd\
!	!	!	!LO:LB:g=original	!	!	!	!	!	!	!	!	!	!	!	!
.	.	.	4ee\	.	.	.	.	.	.	.	4ee\	.	.	.	4ee\
4c\	.	4ee\	4cc\	4c\	-ri-	4e\	-ri-	4e\	-ri-	.	4cc\	e-	.	.	4cc\
!	!	!LO:LB:g=original	!	!	!	!	!	!	!	!	!	!	!	!	!
=26	=26	=26	=26	=26	=26	=26	=26	=26	=26	=26	=26	=26	=26	=26	=26
4B\	6	2.ff\	2.dd\	4B\	-e-	(4f\	-e	2.g\	-e	.	2dd\	-lei-	.	2.g/	2.dd\
4A\	.	.	.	4A\	.	4e\	.	.	.	.	.	.	.	.	.
4B\	.	.	.	4B\	.	4f\	.	.	.	.	4dd\	.	.	.	.
4G\	.	4b/	4dd\	4G\	.	4d\)	.	4b\	e-	.	4dd,<\	-ſon	.	4g/	4dd\
=27	=27	=27	=27	=27	=27	=27	=27	=27	=27	=27	=27	=27	=27	=27	=27
!	!	!	!	!	!	!LO:SIC:o=:v: e dopisane innym tuszem	!	!	!	!	!	!	!	!	!
4c\	.	2.g/	4ee\	4c\	.	2e\	.	(2.g\	-lei-	.	4ee\	e-	.	4g/	4ee\
4B\	6	.	4dd\	4B\	.	.	.	.	.	.	4dd\	.	.	4g/	4dd\
4c\	.	.	4ee\	4c\	.	4r	.	.	.	.	4ee\	.	.	4cc\	4ee\
4A\	6\	4a/	4ff#X\	4A\	.	4e\	e-	4a\)	-ſon	.	4ff\	.	.	4cc\	4ff#X\
!LO:LB:g=original	!	!	!	!	!	!	!	!	!	!	!	!	!	!	!
=28	=28	=28	=28	=28	=28	=28	=28	=28	=28	=28	=28	=28	=28	=28	=28
2G\	.	2b/	4gg\	2G\	.	(1B\	-lei-	2b\	e-	.	4gg\	-lei-	.	2dd\	4gg\
.	.	.	4dd\	.	.	.	.	.	.	.	4b\	.	.	.	4dd\
2B\	6	2g/	[2gg\	2B\	.	.	.	2g\	.	.	1gg\	.	.	2dd\	[2gg\
=29	=29	=29	=29	=29	=29	=29	=29	=29	=29	=29	=29-	=29	=29	=29	=29
2A\	7	1a/	2gg\]	2A\	.	1c\)	.	1a\	-ley-	.	.	.	.	2cc\	2gg\]
2D/	7	.	2ff#X\	2D/	-lei-	.	.	.	.	.	2ff#X\	.	.	2cc\	2ff#X\
=30	=30	=30	=30	=30	=30	=30	=30	=30	=30	=30	=30	=30	=30	=30	=30
2.G\	.	2.g/	2gg\	2G,<\	-ſon	2B\	-ſon	2g\	-ſon	.	2gg,<\	-ſon	.	4dd\	4gg\
.	.	.	.	.	.	.	.	.	.	.	.	.	.	4g/	4g/
.	.	.	2dd\	2G\	e-	2r	.	2g\	e-	.	2dd\	e-	.	4g/	4g/
4G\	.	4g/	.	.	.	.	.	.	.	.	.	.	.	4g/	4g/
!	!	!	!	!LO:LB:g=original	!	!	!	!	!	!	!	!	!	!	!
=31	=31	=31	=31	=31	=31	=31	=31	=31	=31	=31	=31	=31	=31	=31	=31
4E\	.	4g/	2cc\	4E\	-lei-	2.c\	Ky-	(4g\	-lei-	.	2cc\	-lei-	.	4g/	4g/
4D\	6	4f/	.	4D/	.	.	.	4f\	.	.	.	.	.	8g/L	8g/L
.	.	.	.	.	.	.	.	.	.	.	.	.	.	8g/J	8g/J
4E\	.	4g/	2cc\	4E\	-ſon	.	.	4g\)	.	.	2cc\	-ſon	.	4g/	4g/
4C/	.	4e/	.	4C/	.	4c\	-ri-	4e\	.	.	.	.	.	4g/	4g/
=32	=32	=32	=32	=32	=32	=32	=32	=32	=32	=32	=32	=32	=32	=32	=32
2.G\	.	2d/	4r	2.G\	Ky-	(4B\	-e	2d\	-ſon	.	4r	.	.	2g/	2g/
.	.	.	2b\	.	.	4A/	.	.	.	.	2b\	Ky-	.	.	.
.	.	4r	.	.	.	4B\	.	4r	.	.	.	.	.	2r	2r
4E\	6	4g/	4cc\	4E\	-ri-	4G/)	.	4g\	e-	.	4cc\	-ri-	.	.	.
!	!	!	!	!	!	!LO:LB:g=original	!	!LO:LB:g=origignal	!	!	!	!	!	!	!
=33	=33	=33	=33	=33	=33	=33	=33	=33	=33	=33	=33	=33	=33	=33	=33
4F\	.	2cc\	2.cc\	4F\	-e-	(4A/	.	2c\	-lei	.	2.cc\	-e	.	00r	00r
4E\	6	.	.	4E\	.	4G/	.	.	.	.	.	.	.	.	.
4F\	.	4r	.	4F\	-lei-	4A/	.	4r	.	.	.	.	.	.	.
4D\	6\	4f/	4dd\	4D/	.	4B\)	.	4f\	e-	.	4dd\	.	.	.	.
!	!	!	!	!	!	!	!	!	!	!	!LO:LB:g=origignal	!	!	!	!
=34	=34	=34	=34	=34	=34	=34	=34	=34	=34	=34	=34	=34	=34	=34	=34
4E\	.	1g/	2cc\	4E\	.	2c\	e-	(1g\	-ley-	.	2cc\	.	.	.	.
4C/	.	.	.	4C/	.	.	.	.	.	.	.	.	.	.	.
2G\	3	.	2b\	1G\	.	2B\	-lei-	.	.	.	2b\	.	.	.	.
=35	=35	=35	=35	=35-	=35	=35	=35	=35	=35	=35	=35	=35	=35	=35	=35
2G\	4 2	1a/	2cc\	.	.	1A\	-ſon	1a\)	.	.	2cc\	.	.	.	.
2F#X\	6 5	.	2dd\	2F#X\	.	.	.	.	.	.	2dd\	.	.	.	.
=36	=36	=36	=36	=36	=36	=36	=36	=36	=36	=36	=36	=36	=36	=36	=36
2G\	.	2b/	2dd\	2G\	.	2G/	e-	2b\	-ſon	.	2dd\	.	.	.	.
!	!	!	!LO:LB:g=original	!	!	!	!	!	!	!	!	!	!	!	!
2G\	3	2g/	2b/	1G,<\	-ſon	2B\	-lei-	2g\	e-	.	2b\	.	.	.	.
=37	=37	=37	=37	=37-	=37	=37	=37	=37	=37	=37	=37	=37	=37	=37	=37
2G\	4 2	1a/	2cc\	.	.	2A\	.	1a\	-ley-	.	2cc\	.	.	00r	00r
2Fn\	6	.	2dd\	1F\	e-lei-	2d\	.	.	.	.	2dd\	.	.	.	.
=38	=38	=38	=38	=38-	=38	=38	=38	=38	=38	=38	=38	=38	=38	=38	=38
2F\	4 2	2g/	2b\	.	.	(2G/	.	2g\	-ſon	.	4b\	e-	.	.	.
.	.	.	.	.	.	.	.	.	.	.	4g\	.	.	.	.
2E\	6	2r	2cc\	2E\	.	2c\	.	2r	.	.	1cc\	-lei-	.	.	.
!LO:LB:g=original	!	!	!	!	!	!	!	!	!	!	!	!	!	!	!
=39	=39	=39	=39	=39	=39	=39	=39	=39	=39	=39	=39	=39	=39	=39	=39
2D\	7	2.ff\	2cc\	2D/	.	1d\	.	2.f\	Ky-	.	.	.	.	.	.
2G\	7	.	2b/	2G\	.	.	.	.	.	.	2b\	.	.	.	.
.	.	4ff\	.	.	.	.	.	4f\	-ri-	.	.	.	.	.	.
!	!	!LO:LB:g=original	!	!	!	!	!	!	!	!	!	!	!	!	!
=40	=40	=40	=40	=40	=40	=40	=40	=40	=40	=40	=40	=40	=40	=40	=40
2C/	.	4dd\	2cc\	2C,</	-ſon	2e\)	-ſon	(4e\	-e-	.	2cc\	-ſon	.	.	.
.	.	4cc\	.	.	.	.	.	4d\	.	.	.	.	.	.	.
2c\	.	4dd\	2r	2c\	Chri-	2r	.	4e\	.	.	2r	.	.	.	.
.	.	4b\	.	.	.	.	.	4c/)	.	.	.	.	.	.	.
=41	=41	=41	=41	=41	=41	=41	=41	=41	=41	=41	=41	=41	=41	=41	=41
4A\	6	4ff\	2.cc\	4A\	-ste	1r	.	(4f\	.	.	2.cc\	Chri-	.	00r	00r
4G\	.	4gg\	.	4G\	.	.	.	4g\	.	.	.	.	.	.	.
4A\	.	4ff\	.	4A\	.	.	.	4f\	.	.	.	.	.	.	.
4F\	.	4aa\	4cc\	4F\	e-	.	.	4a\)	.	.	4cc\	-ſte	.	.	.
=42	=42	=42	=42	=42	=42	=42	=42	=42	=42	=42	=42	=42	=42	=42	=42
2G\	-	1gg\	4b-X/	2G\	-lei-	2r	.	1g\	-lei-	.	4b-X\	e-	.	.	.
.	.	.	4a/	.	.	.	.	.	.	.	4a\	.	.	.	.
2C/	-7	.	4b-/	2C/	.	2c\	Chri-	.	.	.	4b-\	.	.	.	.
.	.	.	4g/	.	.	.	.	.	.	.	4g\	.	.	.	.
=43	=43	=43	=43	=43	=43	=43	=43	=43	=43	=43	=43	=43	=43	=43	=43
4F\	.	4aa\	4a/	4F,<\	-ſon	(4c\	-ste	4a,<\	-ſon	.	2.a\	-e-	.	.	.
4F\	.	4aa\	4ff\	4F\	Chri-	4A\	.	4a\	Chri-	.	.	.	.	.	.
4A\	6	4ff\	4ff\	4A\	.	4c\	e-	4f\	-ste	.	.	.	.	.	.
4B-X\	.	4gg\	4dd\	4B-X\	-ste	4d\)	.	4f\	e-	.	4dd\	-lei-	.	.	.
!	!	!	!	!LO:LB:g=original	!	!	!	!	!	!	!	!	!	!	!
=44	=44	=44	=44	=44	=44	=44	=44	=44	=44	=44	=44	=44	=44	=44	=44
4c\	.	1gg\	4ee\	4c\	e-	(2.e\	-lei-	1g\	-lei-	.	2cc\	-ſon	.	.	.
4G\	6 4	.	4ee\	4G\	.	.	.	.	.	.	.	.	.	.	.
4c\	.	.	4ee\	4c\	.	.	.	.	.	.	2r	.	.	.	.
4B-X\	.	.	4dd\	4B-X\	.	4d\)	.	.	.	.	.	.	.	.	.
=45	=45	=45	=45	=45	=45	=45	=45	=45	=45	=45	=45	=45	=45	=45	=45
4A\	6	4ff\	2cc\	4A\	.	1c\	-ſon	4f\	-ſon	.	2r	.	.	00r	00r
4G\	.	4gg\	.	4G\	.	.	.	4g\	e-	.	.	.	.	.	.
4F\	.	4aa\	2a/	4F\	.	.	.	4a\	-ley-	.	2a\	e-	.	.	.
4A\	.	4ff\	.	4A\	.	.	.	4f\	-ſon	.	.	.	.	.	.
!	!	!	!	!	!	!	!	!LO:LB:g=origignal	!	!	!LO:LB:g=origignal	!	!	!	!
=46	=46	=46	=46	=46	=46	=46	=46	=46	=46	=46	=46	=46	=46	=46	=46
*	*	*	*	*	*	*	*ij	*	*	*	*	*	*	*	*
4B-X\	6 5	2ff\	2.g/	4B\	-lei-	2d\	e-	2f\	Chri-	.	2.g/	-lei-	.	.	.
4G\	.	.	.	4G\	.	.	.	.	.	.	.	.	.	.	.
4c\	4	2ee\	.	4c\	.	2c\	-lei-	2e\	-ste	.	.	.	.	.	.
.	3	.	.	.	.	.	.	.	.	.	.	.	.	.	.
4C/	.	.	8f/L	4C/	.	.	.	.	.	.	8f/L	.	.	.	.
.	.	.	8g/J	.	.	.	.	.	.	.	8g/J	.	.	.	.
!	!	!	!LO:LB:g=original	!	!	!	!	!	!	!	!	!	!	!	!
=47	=47	=47	=47	=47	=47	=47	=47	=47	=47	=47	=47	=47	=47	=47	=47
2F\	.	2gg\	2a/	2F,<\	-ſon	2c\	-ſon	2f\	e-	.	2a\	-ſon	.	.	.
2F\	.	2aa\	2cc\	2F\	Chri-	2r	.	2a\	-lei-	.	2cc\	e-	.	.	.
*	*	*	*	*	*	*	*Xij	*	*	*	*	*	*	*	*
!	!	!	!	!	!	!LO:LB:g=original	!	!	!	!	!	!	!	!	!
=48	=48	=48	=48	=48	=48	=48	=48	=48	=48	=48	=48	=48	=48	=48	=48
4E\	6	4gg\	1cc\	4E\	-ste	2r	.	(4g\	.	.	1cc\	-lei-	.	.	.
4D\	.	4ff\	.	4D\	e-	.	.	4f\	.	.	.	.	.	.	.
!LO:LB:g=original	!	!	!	!	!	!	!	!	!	!	!	!	!	!	!
4E\	.	4gg\	.	4E\	.	2c\	Chri-	4g\	.	.	.	.	.	.	.
4C/	.	4ee\	.	4C/	-lei-	.	.	4e\)	.	.	.	.	.	.	.
!	!	!	!	!	!	!	!	!	!	!	!	!	!	!	!LO:LB:g=original
=49	=49	=49	=49	=49	=49	=49	=49	=49	=49	=49	=49	=49	=49	=49	=49
2F\	.	2aa\	2cc\	2F\	.	2c\	-ste	2a,<\	-ſon	.	2a\	-ſon	.	0r	0r
2D/	.	2ff\	2dd\	2D\	.	2d\	e-	2f\	e-	.	2r	.	.	.	.
=50	=50	=50	=50	=50	=50	=50	=50	=50	=50	=50	=50	=50	=50	=50	=50
2G\	.	1gg\	2.dd\	2G\	.	(2c\	-lei-	1g\	-lei-	.	1r	.	.	.	.
2GG/	7 4	.	.	2GG/	-ſon	2B\)	.	.	.	.	.	.	.	.	.
.	x 3	.	4dd\	.	.	.	.	.	.	.	.	.	.	.	.
=51	=51	=51	=51	=51	=51	=51	=51	=51	=51	=51	=51	=51	=51	=51	=51
2C/	.	2gg\	2ee\	2C/	.	2c\	-ſon	2g\	-ſon	.	2.ff\	Ky-	.	2.g/	2.gg\
2r	.	2r	2r	2r	.	2r	.	2r	.	.	.	.	.	.	.
.	.	.	.	.	.	.	.	.	.	.	4gg\	-ri-	.	4g/	4gg\
=52	=52	=52	=52	=52	=52	=52	=52	=52	=52	=52	=52	=52	=52	=52	=52
2.c\	.	1r	2ee\	2.c\	Ky-	2.c\	Ky-	1r	.	.	4ee\	-e-	.	2g/	4ee\
.	.	.	.	.	.	.	.	.	.	.	4dd\	.	.	.	4dd\
.	.	.	2ee\	.	.	.	.	.	.	.	4ee\	.	.	2cc\	4ee\
4c\	.	.	.	4c\	-ri-	4c\	-ri-	.	.	.	4cc\	.	.	.	4cc\
!	!	!	!	!	!	!	!	!	!	!	!	!	!	!LO:LB:g=original	!
=53	=53	=53	=53	=53	=53	=53	=53	=53	=53	=53	=53	=53	=53	=53	=53
4B\	6	2.dd\	4dd\	4B\	-e-	(4d\	-e	2.g\	Ky-	.	1dd\	-lei-	.	2dd\	2.dd\
4A\	.	.	4cc\	4A\	.	4c\	e-	.	.	.	.	.	.	.	.
4B\	.	.	4dd\	4B\	.	4d\	.	.	.	.	.	.	.	2dd\	.
4G\	.	4dd\	4b\	4G\	.	4B\)	.	4g\	-ri-	.	.	.	.	.	4dd\
=54	=54	=54	=54	=54	=54	=54	=54	=54	=54	=54	=54	=54	=54	=54	=54
4c\	.	4ee\	4cc\	4c\	.	(4c\	-lei-	2.g\	-e	.	4ee\	.	.	2cc\	4ee\
!	!	!LO:LB:g=original	!	!	!	!	!	!	!	!	!	!	!	!	!
4B\	6	4dd\	4dd\	4B\	.	4G/	.	.	.	.	4dd\	.	.	.	4dd\
4c\	.	4ee\	4cc\	4c\	.	2c\)	.	.	.	.	4ee\	.	.	2cc\	4ee\
4A\	6\	4cc\	4cc\	4A\	.	.	.	4a\	e-	.	4ff\	.	.	.	4ff#X\
=55	=55	=55	=55	=55	=55	=55	=55	=55	=55	=55	=55	=55	=55	=55	=55
4G\	.	2.dd\	2dd\	4G\	.	2d,<\	-ſon	(2.g\	-lei-	.	4gg\	.	.	2dd\	4gg\
4G\	.	.	.	4G\	.	.	.	.	.	.	4dd\	.	.	.	4dd\
4B\	6	.	2dd\	4B\	.	2d\	e-	.	.	.	1gg\	.	.	2g/	[2gg\
4G\	.	4b\	.	4G\	.	.	.	4b\)	.	.	.	.	.	.	.
!	!	!	!	!LO:LB:g=original	!	!	!	!	!	!	!	!	!	!	!
=56	=56	=56	=56	=56	=56	=56	=56	=56	=56	=56	=56	=56	=56	=56	=56
2A\	7	1cc\	2cc\	2A\	.	(4c\	-lei-	1a\,<	-ſon	.	.	.	.	2.cc\	2gg\]
.	.	.	.	.	.	4B\	.	.	.	.	.	.	.	.	.
2D/	# 7	.	2ff#X\	2D/	-lei-	4c\	.	.	.	.	2ff-X\	.	.	.	2ff#X\
.	.	.	.	.	.	4A\)	.	.	.	.	.	.	.	4ee\	.
=57	=57	=57	=57	=57	=57	=57	=57	=57	=57	=57	=57	=57	=57	=57	=57
2G\	.	2b/	2dd\	2G\	-ſon	1B\	.	2g\	e-	.	2gg,<\	-ſon	.	2.dd\	2gg\
2G\	.	2b/	2dd\	2G\	e-	.	.	2g\	-lei-	.	2b\	e-	.	.	2dd\
.	.	.	.	.	.	.	.	.	.	.	.	.	.	4dd\	.
=58	=58	=58	=58	=58	=58	=58	=58	=58	=58	=58	=58	=58	=58	=58	=58
4E\	.	4b/	2ee\	4E\	-lei-	1c\	.	(4g\	.	.	1.cc\	-lei-	.	4cc\	2.ee\
4D/	6	4a/	.	4D\	.	.	.	4f\	.	.	.	.	.	8cc\L	.
.	.	.	.	.	.	.	.	.	.	.	.	.	.	8dd\J	.
4E\	.	4b/	[2cc\	4E\	.	.	.	4g\	.	.	.	.	.	4ee\	.
4C/	.	4g/	.	4C/	.	.	.	4e\)	.	.	.	.	.	4cc\	4gg\
!LO:LB:g=original	!	!	!	!	!	!	!	!LO:LB:g=origignal	!	!	!	!	!	!	!
=59	=59	=59	=59	=59	=59	=59	=59	=59	=59	=59	=59	=59	=59	=59	=59
1D\	7	1a/	2cc\]	1D\	.	(2d\	.	1f\	.	.	.	.	.	4g/	2.ff\
.	.	.	.	.	.	.	.	.	.	.	.	.	.	4r	.
!	!	!	!LO:LB:g=original	!	!	!	!	!	!	!	!	!	!	!	!
.	6	.	2b\	.	.	2f\)	.	.	.	.	2b\	.	.	4cc\	.
.	.	.	.	.	.	.	.	.	.	.	.	.	.	4r	4ff\
=60	=60	=60	=60	=60	=60	=60	=60	=60	=60	=60	=60	=60	=60	=60	=60
2C/	.	2g/	4cc\	2C/	-ſon	2e\	-ſon	2g\	-ſon	.	2cc\	-ſon	.	4g/	4ee\
.	.	.	8ee\L	.	.	.	.	.	.	.	.	.	.	8g/L	8ee\L
.	.	.	8ff\J	.	.	.	.	.	.	.	.	.	.	8g/J	8ff\J
4r	.	4r	4gg\	4r	.	4r	.	4r	.	.	4r	.	.	4g/	4gg\
!	!	!	!	!	!	!	!	!	!	!	!LO:LB:g=origignal	!	!	!	!
4c\	.	4gg\	4ee\	4c\	e-	4c\	e-	4g\	e-	.	4ee\	e-	.	4ee\	4ee\
!	!	!	!	!	!	!LO:LB:g=original	!	!	!	!	!	!	!	!	!
=61	=61	=61	=61	=61	=61	=61	=61	=61	=61	=61	=61	=61	=61	=61	=61
4B\	6	4gg\	4dd\	4B\	-lei-	(4d\	-lei	4g\	-lei-	.	4dd\	-lei-	.	8ff\L	4dd\
.	.	.	.	.	.	.	.	.	.	.	.	.	.	8ee\	.
4r	.	4r	4r	4r	.	4r	.	4r	.	.	4r	.	.	8dd\	4r
.	.	.	.	.	.	.	.	.	.	.	.	.	.	8cc\J	.
4c\	.	4gg\	4gg\	4c\	.	4c\)	.	4e\	-ſon	.	4ee\	.	.	4.g/	4ee\
4r	.	4r	4r	4r	.	4r	.	4r	.	.	4r	.	.	.	4r
.	.	.	.	.	.	.	.	.	.	.	.	.	.	8g/	.
!	!	!	!	!	!	!	!	!	!	!	!	!	!	!	!LO:LB:g=original
=62	=62	=62	=62	=62	=62	=62	=62	=62	=62	=62	=62	=62	=62	=62	=62
2.G\	.	2gg\	4gg\	2G\	-ſon	2B,<\	son	2g\	Ky-	.	2dd,<\	-ſon	.	4e/	4dd\
.	.	.	4gg\	.	.	.	.	.	.	.	.	.	.	8cc\L	8g/L
.	.	.	.	.	.	.	.	.	.	.	.	.	.	8dd\J	8g/J
.	.	4dd\	4dd\	4G\	e-	2B\	e-	4d\	-ri-	.	2dd\	e-	.	4ee\	4g/
4G\	.	4gg\	4gg\	4G\	-lei-	.	.	4g\	-e-	.	.	.	.	4cc\	4g/
=63	=63	=63	=63	=63	=63	=63	=63	=63	=63	=63	=63	=63	=63	=63	=63
4E\	6	4gg\	4gg\	4E\	.	(1.c\	-lei-	(4g\	.	.	2cc\	-lei-	.	4g/	4g/
4D\	.	4ff\	4ff\	4D/	.	.	.	4f\	.	.	.	.	.	4r	8g/L
.	.	.	.	.	.	.	.	.	.	.	.	.	.	.	8g/J
4C\	.	4ee\	4ee\	4C/	.	.	.	4e\	.	.	2ee\	-ſon	.	4cc\	4g/
4E\	.	4gg\	4gg\	4E\	.	.	.	4g\)	.	.	.	.	.	4r	4gg\
!	!	!	!	!	!	!	!	!	!	!	!	!	!	!LO:LB:g=original	!
=64	=64	=64	=64	=64	=64	=64-	=64	=64	=64	=64	=64	=64	=64	=64	=64
4F\	6 5	2aa\	8aa\L	4F\	.	.	.	2a\	.	.	2.dd\	e-	.	4g/	8aa\L
.	.	.	8gg\	.	.	.	.	.	.	.	.	.	.	.	8gg\
4D\	.	.	8ff\	4D\	.	.	.	.	.	.	.	.	.	4g/	8ff\
.	.	.	8ee\J	.	.	.	.	.	.	.	.	.	.	.	8ee\J
4G\	x 4	2gg\	4.dd\	4G\	.	2B\)	.	2g\	-lei-	.	.	.	.	4g/	4.dd\
4GG/	7 3	.	.	4GG/	-ſon	.	.	.	.	.	8cc\L	-lei-	.	8e/L	.
.	.	.	8dd\	.	.	.	.	.	.	.	8dd\J	.	.	8g/J	8dd\
=65	=65	=65	=65	=65	=65	=65	=65	=65	=65	=65	=65	=65	=65	=65	=65
2C/	.	2gg\	4ee\	2C/	.	2c\	-ſon	2g\	-ſon	.	2ee\	-ſon	.	4cc\	4cc\
.	.	.	8ee\L	.	.	.	.	.	.	.	.	.	.	4cc\	8ee\L
.	.	.	8ff\J	.	.	.	.	.	.	.	.	.	.	.	8ff\J
4r	.	4r	4gg\	4r	.	4r	.	4r	.	.	4r	.	.	2r	4gg\
4c\	.	4ee\	4ee\	4c\	e-	4G/	e-	4e\	e-	.	4cc\	e-	.	.	4ee\
=66	=66	=66	=66	=66	=66	=66	=66	=66	=66	=66	=66	=66	=66	=66	=66
4B\	6	4gg\	4dd\	4B\	-lei-	4d\	-lei-	4g\	-lei-	.	4dd\	-lei-	.	00r	4dd\
4r	.	4r	4r	4r	.	4r	.	4r	.	.	4r	.	.	.	4r
4c\	.	4gg\	4ee\	4c\	.	4c\	.	4g\	.	.	4ee\	.	.	.	4ee\
4r	.	4r	4r	4r	.	4r	.	4r	.	.	4r	.	.	.	4r
!	!	!LO:LB:g=original	!	!	!	!	!	!	!	!	!	!	!	!	!
=67	=67	=67	=67	=67	=67	=67	=67	=67	=67	=67	=67	=67	=67	=67	=67
2G\	.	2gg\	4dd\	2G\	-ſon	1B\	.	2g\	-ſon	.	1dd\	.	.	.	4dd\
.	.	.	8b\L	.	.	.	.	.	.	.	.	.	.	.	4dd\
.	.	.	8cc\J	.	.	.	.	.	.	.	.	.	.	.	.
4G\	.	4dd\	4dd\	4G\	e-	.	.	4d\	e-	.	.	.	.	.	4dd\
4G\	.	4gg\	4dd\	4G\	-lei	.	.	4g\	-lei-	.	.	.	.	.	8cc\L
.	.	.	.	.	.	.	.	.	.	.	.	.	.	.	8dd\J
!	!	!	!	!LO:LB:g=original	!	!	!	!	!	!	!	!	!	!	!
=68	=68	=68	=68	=68	=68	=68	=68	=68	=68	=68	=68	=68	=68	=68	=68
2C/	.	4gg\	4ee\	2C/	.	2.c\	-ſon	2e\	.	.	2cc\	-ſon	.	.	4ee\
.	.	8ee\L	8cc\L	.	.	.	.	.	.	.	.	.	.	.	4ee\
.	.	8dd\J	8dd\J	.	.	.	.	.	.	.	.	.	.	.	.
4E\	6	4cc\	4ee\	4E\	.	.	.	4g,<\	-ſon	.	2ff\	e-	.	.	2r
4C/	.	4ee\	4gg\	4C/	.	4e\	e-	4g\	e-	.	.	.	.	.	.
!LO:LB:g=original	!	!	!LO:LB:g=original	!	!	!	!	!	!	!	!	!	!	!	!
=69	=69	=69	=69	=69	=69	=69	=69	=69	=69	=69	=69	=69	=69	=69	=69
2A\	7	4ee\	4gg\	2A\	e-	(4e\	-lei-	(2c\	-lei-	.	4gg\	-lei-	.	.	00r
.	6\	8dd\L	8ff\L	.	.	8d\L	.	.	.	.	8ff\L	.	.	.	.
.	.	8cc\J	8ee\J	.	.	8c\J	.	.	.	.	8ee\J	.	.	.	.
2D/	.	4dd\	4ff\	2D/	-lei-	2d\)	.	2f\)	.	.	2ff\	.	.	.	.
.	.	4dd\	4ff\	.	.	.	.	.	.	.	.	.	.	.	.
!	!	!	!	!	!	!	!	!LO:LB:g=origignal	!	!	!	!	!	!	!
=70	=70	=70	=70	=70	=70	=70	=70	=70	=70	=70	=70	=70	=70	=70	=70
2G\	7	4dd\	4ff\	2G\	.	(4d\	.	(2B/	.	.	4ff\	.	.	00r	.
.	6	8cc\L	8ee\L	.	.	8c\L	.	.	.	.	8ee\L	.	.	.	.
.	.	8b\J	8dd\J	.	.	8B\J	.	.	.	.	8dd\J	.	.	.	.
2C/	.	4cc\	4ee\	2C/	.	2c\)	.	2e\)	.	.	2ee\	.	.	.	.
.	.	4cc\	4ee\	.	.	.	.	.	.	.	.	.	.	.	.
=71	=71	=71	=71	=71	=71	=71	=71	=71	=71	=71	=71	=71	=71	=71	=71
2G\	.	2.cc\	4dd\	2G\	.	(2c\	.	1g\	-ley-	.	2.dd,<\	-ſon	.	.	.
.	.	.	4dd\	.	.	.	.	.	.	.	.	.	.	.	.
2GG/	.	.	4dd\	2GG/	.	2B\)	.	.	.	.	.	.	.	.	.
.	.	4b/	8cc\L	.	.	.	.	.	.	.	8cc\L	Ky-	.	.	.
.	.	.	8dd\J	.	.	.	.	.	.	.	8dd\J	-ri-	.	.	.
!	!	!	!	!	!	!	!	!	!	!	!LO:LB:g=origignal	!	!	!	!
=72	=72	=72	=72	=72	=72	=72	=72	=72	=72	=72	=72	=72	=72	=72	=72
2C/	.	2cc\	2cc\	2C/	-son	2c\	-ſon	2g\	-ſon	.	4cc\	-e-	.	.	.
.	.	.	.	.	.	.	.	.	.	.	2cc\	.	.	.	.
2r	.	2r	2cc\	2r	.	2r	.	2r	.	.	.	.	.	.	.
.	.	.	.	.	.	.	.	.	.	.	4cc\	.	.	.	.
!	!	!	!	!	!	!LO:LB:g=original	!	!	!	!	!	!	!	!	!
=73	=73	=73	=73	=73	=73	=73	=73	=73	=73	=73	=73	=73	=73	=73	=73
2.G\	.	2.gg\	4b/	2.G\	Ky-	2.d\	Ky-	2.b\	Ky-	.	4b\	.	.	.	0r
.	.	.	4a/	.	.	.	.	.	.	.	4a\	.	.	.	.
.	.	.	4b/	.	.	.	.	.	.	.	4b\	.	.	.	.
4G\	.	4gg\	4g/	4G\	-ri-	4d\	-ri-	4b\	-ri-	.	4g\	.	.	.	.
=74	=74	=74	=74	=74	=74	=74	=74	=74	=74	=74	=74	=74	=74	=74	=74
4E\	.	4gg\	2cc\	4E\	-e	2c\	-e	(4a\	-e-	.	2cc\	-lei-	.	0r	.
4D\	6	4ff\	.	4D/	.	.	.	4g\	.	.	.	.	.	.	.
4E\	.	4gg\	2ee\	4E\	e-	2c\	e-	4a\	.	.	2ee\	.	.	.	.
4C\	.	4ee\	.	4C/	.	.	.	4f\)	.	.	.	.	.	.	.
=75	=75	=75	=75	=75	=75	=75	=75	=75	=75	=75	=75	=75	=75	=75	=75
1D\	7	2dd\	2.ff\	1D\	-lei-	(2c\	-lei-	1f\	-lei-	.	2dd\	.	.	.	1r
.	6	2b/	.	.	.	2B\)	.	.	.	.	2ff\	.	.	.	.
.	.	.	4ff\	.	.	.	.	.	.	.	.	.	.	.	.
!	!	!	!	!	!	!	!	!	!	!	!	!	!	!	!LO:LB:g=original
=76	=76	=76	=76	=76	=76	=76	=76	=76	=76	=76	=76	=76	=76	=76	=76
2C\	.	2cc\	2gg\	2C,</	-ſon	2c,<\	-ſon	2g,<\	-ſon	.	2ee,<\	-ſon	.	2r	2r
2E\	6	2g/	2b\	2E\	e-lei	2e\	e-	2g\	e-	.	1cc\	e-	.	2ee\	2gg\
=77	=77	=77	=77	=77	=77	=77	=77	=77	=77	=77	=77-	=77	=77	=77	=77
2A\	7	4a/	4cc\	2A\	.	4e\	-lei-	(4g\	-lei-	.	.	.	.	4ee\	4gg\
!	!	!LO:LB:g=original	!	!	!	!	!	!	!	!	!	!	!	!	!
.	6	4cc\	4cc\	.	.	8d\L	.	8f\L	.	.	.	.	.	8dd\L	8ff\L
.	.	.	.	.	.	8c\J	.	8e\J)	.	.	.	.	.	8cc\J	8ee\J
2D/	.	8dd\L	8ff\L	2D/	.	2d\	.	2f\	.	.	2dd\	-lei-	.	4dd\	4ff\
.	.	8cc\	8ee\	.	.	.	.	.	.	.	.	.	.	.	.
.	.	8b\	8dd\	.	.	.	.	.	.	.	.	.	.	4dd\	4ff\
.	.	8a\J	8cc\J	.	.	.	.	.	.	.	.	.	.	.	.
=78	=78	=78	=78	=78	=78	=78	=78	=78	=78	=78	=78	=78	=78	=78	=78
2G\	7	4g/	4b/	2A\	.	4d\	.	(4f\	.	.	2b\	.	.	4dd\	4ff\
.	6	4b/	4b/	.	.	8c\L	.	8e\L	.	.	.	.	.	8cc\L	8ee\L
.	.	.	.	.	.	8B\J	.	8d\J	.	.	.	.	.	8g\J	8dd\J
!	!	!	!LO:LB:g=original	!	!	!	!	!	!	!	!	!	!	!	!
2C/	.	8cc\L	8ee\L	2C/	-ſon	2c\	.	2e,<\)	-ſon	.	2cc\	.	.	4cc\	4ee\
.	.	8b\	8dd\	.	.	.	.	.	.	.	.	.	.	.	.
.	.	8a\	8cc\	.	.	.	.	.	.	.	.	.	.	4cc\	4ee\
.	.	8g\J	8b\J	.	.	.	.	.	.	.	.	.	.	.	.
=79	=79	=79	=79	=79	=79	=79	=79	=79	=79	=79	=79	=79	=79	=79	=79
2.C/	.	4f/	4cc\	2.C/	Ky-	4c,<\	-ſon	4g\	Ky-	.	4cc,<\	-ſon	.	4cc\	4ee\
.	.	2ee\	2gg\	.	.	2e\	Ky-	2e\	-ri-	.	2gg\	Ky-	.	2ee\	2gg\
4D/	6	4dd\	4ff\	4D/	-ri-	4d\	-ri-	4f\	-e	.	4ff\	-ri-	.	4dd\	4ff\
!LO:LB:g=original	!	!	!	!LO:LB:g=original	!	!	!	!	!	!	!	!	!	!	!
=80	=80	=80	=80	=80	=80	=80	=80	=80	=80	=80	=80	=80	=80	=80	=80
2E\	6	(1.cc\	2ee\	2E\	-e	2c\	-e	2g\	e-	.	2ee\	-e	.	2cc\	2ee\
2F\	6 5	.	2dd\	2F\	e-	2c\	e-	2a\	-lei-	.	2dd\	e-	.	2cc\	2dd\
=81	=81	=81-	=81	=81	=81	=81	=81	=81	=81	=81	=81	=81	=81	=81	=81
2G\	x 4	.	2.dd\	2G\	-lei-	2c\	-lei-	1g\	-ſon	.	2.dd\	-lei-	.	2.g/	2.dd\
.	7 3	.	.	.	.	.	.	.	.	.	.	.	.	.	.
2GG/	.	2b\)	.	2GG/	.	2B\	.	.	.	.	.	.	.	.	.
.	.	.	8cc\L	.	.	.	.	.	.	.	8cc\L	.	.	8e/L	8cc\L
.	.	.	8dd\J	.	.	.	.	.	.	.	8dd\J	.	.	8g/J	8dd\J
=82	=82	=82	=82	=82	=82	=82	=82	=82	=82	=82	=82	=82	=82	=82	=82
2C/	.	4cc\	4ee\	2C/	-ſon	2c\	-ſon	2g\	e-	.	2ee\	-ſon	.	4cc\	4ee\
.	.	8cc\L	8ee\L	.	.	.	.	.	.	.	.	.	.	8cc\L	8ee\L
.	.	8dd\J	8ff\J	.	.	.	.	.	.	.	.	.	.	8dd\J	8ff\J
4r	.	4ee\	4gg\	4r	.	4r	.	4r	.	.	4r	.	.	4ee\	4gg\
4c\	.	4cc\	4ee\	4c\	e-	4G/	e-	4e\	-lei-	.	4cc\	e-	.	4cc\	4ee\
!	!	!	!	!	!	!LO:LB:g=original	!	!LO:LB:g=origignal	!	!	!	!	!	!	!
=83	=83	=83	=83	=83	=83	=83	=83	=83	=83	=83	=83	=83	=83	=83	=83
!	!	!	!	!	!	!	!	!	!	!	!	!	!	!LO:SIC:o=:v: brak taktu w źródle	!
4B\	6	4dd\	4dd\	4B\	-lei-	4d\	-lei-	4g\	.	.	4dd\	-lei-	.	1ryy	4dd\
4r	.	4r	4r	4r	.	4r	.	4r	.	.	4r	.	.	.	4r
!	!	!	!	!	!	!	!	!	!	!	!LO:LB:g=origignal	!	!	!	!
4c\	.	4cc\	4ee\	4c\	.	4c\	.	4g\	.	.	4ee\	.	.	.	4ee\
4r	.	4r	4r	4r	.	4r	.	4r	.	.	4r	.	.	.	4r
=84	=84	=84	=84	=84	=84	=84	=84	=84	=84	=84	=84	=84	=84	=84	=84
2.G\	.	4b/	4dd\	2.G\	-ſon	(2.B\	.	2.g\	-ſon	.	2.dd\	-ſon	.	2.g/	2.dd\
.	.	8g/L	8b\L	.	.	.	.	.	.	.	.	.	.	.	.
.	.	8a/J	8cc\J	.	.	.	.	.	.	.	.	.	.	.	.
.	.	4b/	4dd\	.	.	.	.	.	.	.	.	.	.	.	.
4G\	.	4b/	4gg\	4G\	e-	4B\)	-ſon	4b\	e-	.	4dd\	e-	.	4g/	4dd\
=85	=85	=85	=85	=85	=85	=85	=85	=85	=85	=85	=85	=85	=85	=85	=85
!	!	!	!	!	!	!	!	!	!	!	!	!	!	!LO:SIC:o=:v: mixed beam	!
4E\	6	8cc\L	4gg\	4E\	-lei-	(8c\L	e-	(4g\	-lei-	.	8ee\L	-lei-	.	8g/L	8ee\L
.	.	8ee\	.	.	.	8e\	-lei-	.	.	.	8gg\	.	.	8ee\	8gg\
4F\	6 5	8dd\	8ff\L	4F\	.	8d\	.	4a\)	.	.	8ff\	.	.	8dd\	8ff\
.	.	8cc\J	8ee\J	.	.	8c\J	.	.	.	.	8ee\J	.	.	8cc\J	8ee\J
4G\	4	4dd\	8dd\L	4G\	.	4c\)	.	2g\	.	.	2dd\	.	.	8g/L	4.dd\
.	3	.	8bb\	.	.	.	.	.	.	.	.	.	.	8e/	.
4GG/	.	4dd\	8aa\	4GG/	.	4B\	.	.	.	.	.	.	.	8c/	.
.	.	.	8bb\J	.	.	.	.	.	.	.	.	.	.	8g/J	8dd\
=86	=86	=86	=86	=86	=86	=86	=86	=86	=86	=86	=86	=86	=86	=86	=86
1C/	.	1ee\	1aa\	1C/	-ſon	1c\	-ſon	1g\	-ſon	.	1ee\	-ſon	.	1e/	1cc\
!	!	!	!LO:TX:b:t=Verte Cito	!	!	!	!	!	!	!	!	!	!	!	!
==:||:	==	==:||:	==:||:	==:||:	==	==:||:	==	==:||:	==	==	==:||:	==	==	==:||:	==:||:
*-	*-	*-	*-	*-	*-	*-	*-	*-	*-	*-	*-	*-	*-	*-	*-
!!!system-decoration: [(s1,s2)][(s3,s4,s5,s6)][(s7,s8)]s9
!!!RDF**kern: > = above
!!!RDF**kern: < = below
!!!EED: Leszek Kubiak
!!!EEV: 2020-11-05
!!!ENC: Berenika Jozajtis
!!!END: 2020-05-08
!!!YEC: Copyright 2022 Narodowy Instytut Fryderyka Chopina (https://polishscores.org)
!!!YEM: Licence CC BY 4.0 (https://creativecommons.org/licenses/by/4.0)
